X: 20562
M: 1/4
L: 1/16
K: A
E2 |\
e2e2 a3e | e2fe e2c2 | A2A2 ABcd |1 e2fe e2 :|2 ecdB A2 :|
|: ce |\
d2B2 B2Bd | c2A2 A2ce | fagf edcB | c2A2A2 Ae |\
d2B2 Bfed | c2A2 A2ce | fagf edcB | A2a2a2 :|


